packages/foundations/assets/icons/functional/images/security/shield_check_28.svg

<svg width="28" height="28" viewBox="0 0 28 28" fill="none" xmlns="http://www.w3.org/2000/svg">
<g clip-path="url(#clip0_187_304)">
<path fill-rule="evenodd" clip-rule="evenodd" d="M11.1188 12.5065C10.7767 12.1644 10.2237 12.1644 9.88158 12.5065C9.53947 12.8486 9.53947 13.4016 9.88158 13.7437L12.5065 16.3686C12.6771 16.5393 12.9011 16.625 13.1251 16.625C13.349 16.625 13.573 16.5393 13.7437 16.3686L18.9934 11.1188C19.3355 10.7767 19.3355 10.2237 18.9934 9.88159C18.6513 9.53947 18.0983 9.53947 17.7562 9.88159L13.1251 14.5128L11.1188 12.5065ZM21.875 11.4103C21.875 17.2823 19.2991 21.5679 14 24.5C8.7017 21.5679 6.125 17.2823 6.125 11.4103V7.28902L14 3.5L21.875 7.28902V11.4103ZM14.6168 1.88475C14.4195 1.79463 14.2101 1.75 14 1.75C13.7899 1.75 13.5805 1.79463 13.3832 1.88475L4.86828 5.88875C4.56991 6.02437 4.375 6.34375 4.375 6.69637V11.375C4.375 17.9576 7.46543 22.9513 13.6455 26.1634C13.7562 26.2211 13.8781 26.25 14 26.25C14.1219 26.25 14.2438 26.2211 14.3545 26.1634C20.5346 22.9513 23.625 17.9585 23.625 11.375V6.69637C23.625 6.34375 23.4301 6.02437 23.1317 5.88875L14.6168 1.88475Z" fill="#1A1C1F"/>
</g>
<defs>
<clipPath id="clip0_187_304">
<rect width="28" height="28" fill="white"/>
</clipPath>
</defs>
</svg>

<svg xmlns="http://www.w3.org/2000/svg" width="28" height="28" fill="none"><g clip-path="url(#a)"><path fill="#1A1C1F" fill-rule="evenodd" d="M11.119 12.507a.874.874 0 1 0-1.237 1.237l2.625 2.625a.87.87 0 0 0 1.237 0l5.25-5.25a.874.874 0 1 0-1.238-1.237l-4.63 4.63zm10.756-1.097c0 5.872-2.576 10.158-7.875 13.09-5.298-2.932-7.875-7.218-7.875-13.09V7.29L14 3.5l7.875 3.789zm-7.258-9.525a1.48 1.48 0 0 0-1.234 0L4.868 5.889c-.298.135-.493.455-.493.807v4.679c0 6.583 3.09 11.576 9.27 14.788a.77.77 0 0 0 .71 0c6.18-3.212 9.27-8.204 9.27-14.788V6.696c0-.352-.195-.672-.493-.807z" clip-rule="evenodd"/></g><defs><clipPath id="a"><path fill="#fff" d="M0 0h28v28H0z"/></clipPath></defs></svg>
